X:155
T:Take Toast To Thee,.. HA.154
M:6/4
L:1/8
Q:3/4=60
C:”….Tippetts,good man (???)”
S:Henry Atkinson’s original MS,Hartburn,N’umberland,1694.
O:England
A:Hartburn,Northumberland
N:No key sig., but G (i.e. with sharpened F notes)
N:sounds more probable than C (Gmix?). The title is a little difficult
N:to read and my guess may be incorrect NBr
H:1/8
Z:vmp.Neil Brookes, Jan.2004
K:G
“_No Key Sig in MS”G2|E2G2G2B2e2d2|\
B2 dB AG A4G2|E2G2G2 efgfed|B2G2G2G4:|
|:g2|e2g2f2e2a2g2|e2d2B2A2B2d2|\
e3de2g2d2e2|B2G2G2G4:|

